svg/partly_cloudy.svg

<svg width="394" height="380" viewBox="0 0 394 380" fill="none" xmlns="http://www.w3.org/2000/svg">
<g filter="url(#filter0_f_8_7)">
<rect x="77" y="77" width="240" height="226" rx="94" fill="#FFEF9A"/>
</g>
<g filter="url(#filter1_i_8_7)">
<path d="M301 208C301 265.438 254.438 312 197 312C139.562 312 93 265.438 93 208C93 150.562 139.562 104 197 104C254.438 104 301 150.562 301 208Z" fill="url(#paint0_linear_8_7)"/>
</g>
<g filter="url(#filter3_i_8_7)">
<path d="M256.326 261.629C257.049 257.524 257.426 253.302 257.426 248.993C257.426 208.68 224.441 176 183.752 176C153.503 176 127.512 194.061 116.166 219.893C106.974 212.03 95.0468 207.283 82.0124 207.283C52.949 207.283 29.3884 230.885 29.3884 260C29.3884 261.621 29.4615 263.225 29.6045 264.809C15.6255 271.593 6 285.828 6 302.29C6 325.326 24.8484 344 48.0992 344H246.901C270.152 344 289 325.326 289 302.29C289 282.464 275.039 265.869 256.326 261.629Z" fill="url(#paint1_linear_8_7)"/>
</g>
<defs>
<filter id="filter0_f_8_7" x="0" y="0" width="394" height="380" filterUnits="userSpaceOnUse" color-interpolation-filters="sRGB">
<feFlood flood-opacity="0" result="BackgroundImageFix"/>
<feBlend mode="normal" in="SourceGraphic" in2="BackgroundImageFix" result="shape"/>
<feGaussianBlur stdDeviation="38.5" result="effect1_foregroundBlur_8_7"/>
</filter>
<filter id="filter1_i_8_7" x="93" y="104" width="208" height="213" filterUnits="userSpaceOnUse" color-interpolation-filters="sRGB">
<feFlood flood-opacity="0" result="BackgroundImageFix"/>
<feBlend mode="normal" in="SourceGraphic" in2="BackgroundImageFix" result="shape"/>
<feColorMatrix in="SourceAlpha" type="matrix" values="0 0 0 0 0 0 0 0 0 0 0 0 0 0 0 0 0 0 127 0" result="hardAlpha"/>
<feOffset dy="5"/>
<feGaussianBlur stdDeviation="9"/>
<feComposite in2="hardAlpha" operator="arithmetic" k2="-1" k3="1"/>
<feColorMatrix type="matrix" values="0 0 0 0 1 0 0 0 0 1 0 0 0 0 1 0 0 0 0.81 0"/>
<feBlend mode="normal" in2="shape" result="effect1_innerShadow_8_7"/>
</filter>
<filter id="filter3_i_8_7" x="6" y="176" width="283" height="178" filterUnits="userSpaceOnUse" color-interpolation-filters="sRGB">
<feFlood flood-opacity="0" result="BackgroundImageFix"/>
<feBlend mode="normal" in="SourceGraphic" in2="BackgroundImageFix" result="shape"/>
<feColorMatrix in="SourceAlpha" type="matrix" values="0 0 0 0 0 0 0 0 0 0 0 0 0 0 0 0 0 0 127 0" result="hardAlpha"/>
<feOffset dy="11"/>
<feGaussianBlur stdDeviation="5"/>
<feComposite in2="hardAlpha" operator="arithmetic" k2="-1" k3="1"/>
<feColorMatrix type="matrix" values="0 0 0 0 1 0 0 0 0 1 0 0 0 0 1 0 0 0 1 0"/>
<feBlend mode="normal" in2="shape" result="effect1_innerShadow_8_7"/>
</filter>
<linearGradient id="paint0_linear_8_7" x1="181.203" y1="264.608" x2="266.772" y2="114.532" gradientUnits="userSpaceOnUse">
<stop stop-color="#FF9900"/>
<stop offset="1" stop-color="#FFEE94"/>
</linearGradient>
<linearGradient id="paint1_linear_8_7" x1="24" y1="329" x2="309.5" y2="115.5" gradientUnits="userSpaceOnUse">
<stop stop-color="grey"/>
<stop offset="1" stop-color="white" stop-opacity="0.58"/>
</linearGradient>
</defs>
</svg>

<svg 
  viewBox="0 0 394 380"
  xmlns="http://www.w3.org/2000/svg"
  preserveAspectRatio="xMidYMid meet"
  style="width: 100%; height: auto; display: block; overflow: visible;"
>
<g filter="url(#a)"><rect width="240" height="226" x="77" y="77" fill="#FFEF9A" rx="94"/></g><g filter="url(#b)"><path fill="url(#c)" d="M301 208c0 57.438-46.562 104-104 104S93 265.438 93 208s46.562-104 104-104 104 46.562 104 104Z"/></g><g filter="url(#d)"><path fill="url(#e)" d="M256.326 261.629a72.8 72.8 0 0 0 1.1-12.636c0-40.313-32.985-72.993-73.674-72.993-30.249 0-56.24 18.061-67.586 43.893-9.192-7.863-21.12-12.61-34.154-12.61-29.063 0-52.624 23.602-52.624 52.717 0 1.621.073 3.225.216 4.809C15.627 271.593 6 285.828 6 302.29 6 325.326 24.848 344 48.1 344H246.9C270.152 344 289 325.326 289 302.29c0-19.826-13.961-36.421-32.674-40.661Z"/></g><defs><filter id="a" width="394" height="380" x="0" y="0" color-interpolation-filters="sRGB" filterUnits="userSpaceOnUse"><feFlood flood-opacity="0" result="BackgroundImageFix"/><feBlend in="SourceGraphic" in2="BackgroundImageFix" result="shape"/><feGaussianBlur result="effect1_foregroundBlur_8_7" stdDeviation="38.5"/></filter><filter id="b" width="208" height="213" x="93" y="104" color-interpolation-filters="sRGB" filterUnits="userSpaceOnUse"><feFlood flood-opacity="0" result="BackgroundImageFix"/><feBlend in="SourceGraphic" in2="BackgroundImageFix" result="shape"/><feColorMatrix in="SourceAlpha" result="hardAlpha" values="0 0 0 0 0 0 0 0 0 0 0 0 0 0 0 0 0 0 127 0"/><feOffset dy="5"/><feGaussianBlur stdDeviation="9"/><feComposite in2="hardAlpha" k2="-1" k3="1" operator="arithmetic"/><feColorMatrix values="0 0 0 0 1 0 0 0 0 1 0 0 0 0 1 0 0 0 0.81 0"/><feBlend in2="shape" result="effect1_innerShadow_8_7"/></filter><filter id="d" width="283" height="178" x="6" y="176" color-interpolation-filters="sRGB" filterUnits="userSpaceOnUse"><feFlood flood-opacity="0" result="BackgroundImageFix"/><feBlend in="SourceGraphic" in2="BackgroundImageFix" result="shape"/><feColorMatrix in="SourceAlpha" result="hardAlpha" values="0 0 0 0 0 0 0 0 0 0 0 0 0 0 0 0 0 0 127 0"/><feOffset dy="11"/><feGaussianBlur stdDeviation="5"/><feComposite in2="hardAlpha" k2="-1" k3="1" operator="arithmetic"/><feColorMatrix values="0 0 0 0 1 0 0 0 0 1 0 0 0 0 1 0 0 0 1 0"/><feBlend in2="shape" result="effect1_innerShadow_8_7"/></filter><linearGradient id="c" x1="181.203" x2="266.772" y1="264.608" y2="114.532" gradientUnits="userSpaceOnUse"><stop stop-color="#F90"/><stop offset="1" stop-color="#FFEE94"/></linearGradient><linearGradient id="e" x1="24" x2="309.5" y1="329" y2="115.5" gradientUnits="userSpaceOnUse"><stop stop-color="gray"/><stop offset="1" stop-color="#fff" stop-opacity=".58"/></linearGradient></defs></svg>
